Sources/FrostedUI/Resources/Icons.xcassets/upinTilted32.imageset/upin-tilted-32.svg

<svg width="32" height="32" viewBox="0 0 32 32" fill="none" xmlns="http://www.w3.org/2000/svg" data-fui-icon="true">
  <path
    d="M1.21973 1.21973C1.51262 0.926834 1.98738 0.926833 2.28027 1.21973L30.7803 29.7197C31.0731 30.0126 31.0731 30.4874 30.7803 30.7803C30.4874 31.0731 30.0126 31.0731 29.7197 30.7803L22.0968 23.1574C21.9418 23.0024 21.6784 23.0605 21.603 23.2663L20.3184 26.7715C19.3754 29.3431 16.0825 30.0693 14.1455 28.1328L9.72387 23.7102C9.60671 23.5931 9.41673 23.5931 9.29956 23.7102L4.91602 28.0947C4.62314 28.3876 4.14739 28.3876 3.85449 28.0947C3.56197 27.8019 3.56202 27.327 3.85449 27.0342L8.23904 22.6496C8.3562 22.5325 8.3562 22.3425 8.23904 22.2254L3.81738 17.8037C1.88098 15.8668 2.60629 12.5739 5.17773 11.6309L8.68218 10.3453C8.88789 10.2699 8.94593 10.0065 8.79099 9.85154L1.21973 2.28027C0.926833 1.98738 0.926833 1.51262 1.21973 1.21973ZM5.69434 13.04C4.15168 13.6059 3.71632 15.581 4.87793 16.7432L15.207 27.0723C16.3693 28.2336 18.3445 27.7977 18.9102 26.2549L20.5298 21.8361C20.57 21.7264 20.5428 21.6034 20.4602 21.5208L10.4275 11.4881C10.3449 11.4054 10.2218 11.3783 10.112 11.4186L5.69434 13.04ZM16.9365 3.69922C18.4009 2.23518 20.7749 2.23528 22.2393 3.69922L28.25 9.70996C29.7144 11.1743 29.7142 13.5482 28.25 15.0127L23.3733 19.8885C23.2561 20.0056 23.0662 20.0056 22.949 19.8885L22.3127 19.2522C22.1956 19.135 22.1956 18.9451 22.3128 18.8279L27.1895 13.9521C28.0678 13.0734 28.068 11.6491 27.1895 10.7705L21.1787 4.75977C20.3001 3.88161 18.8756 3.88152 17.9971 4.75977L13.1203 9.63556C13.0032 9.7527 12.8132 9.75269 12.6961 9.63554L12.0598 8.99926C11.9426 8.8821 11.9427 8.69213 12.0598 8.57498L16.9365 3.69922Z"
    fill="currentColor"
  />
</svg>

<svg xmlns="http://www.w3.org/2000/svg" width="32" height="32" fill="none" data-fui-icon="true" viewBox="0 0 32 32"><path fill="currentColor" d="M1.22 1.22a.75.75 0 0 1 1.06 0l28.5 28.5a.75.75 0 0 1-1.06 1.06l-7.623-7.623a.3.3 0 0 0-.494.11l-1.285 3.505c-.943 2.571-4.236 3.297-6.173 1.36L9.724 23.71a.3.3 0 0 0-.424 0l-4.384 4.385a.751.751 0 0 1-1.062-1.06L8.24 22.65a.3.3 0 0 0 0-.425l-4.422-4.421c-1.936-1.937-1.21-5.23 1.36-6.173l3.505-1.286a.3.3 0 0 0 .109-.493L1.22 2.28a.75.75 0 0 1 0-1.06m4.474 11.82c-1.542.566-1.978 2.541-.816 3.703l10.329 10.33c1.162 1.16 3.137.725 3.703-.818l1.62-4.419a.3.3 0 0 0-.07-.315L10.428 11.488a.3.3 0 0 0-.316-.07zM16.937 3.7a3.75 3.75 0 0 1 5.302 0l6.011 6.01a3.75 3.75 0 0 1 0 5.303l-4.877 4.876a.3.3 0 0 1-.424 0l-.636-.637a.3.3 0 0 1 0-.424l4.877-4.876a2.25 2.25 0 0 0 0-3.181L21.179 4.76a2.25 2.25 0 0 0-3.182 0L13.12 9.636a.3.3 0 0 1-.424 0l-.636-.637a.3.3 0 0 1 0-.424z"/></svg>
